X:134
T: Tianshi haochang kou nankai
N: C1628
O: China, Zhejiang, Wenzhou
S: III, 641]
R: Shange, Tiange, Tianshi]
M: 2/4
L: 1/16
K: D
B4d4 | e2f2e4e4 | f4e4B4 | a4e4 |
eeeezdcdB4
B4d4 | e2f2e4e4- | e4a4 |
eeeezdcdB4 | cd3BBBB | B2A6 |
B4d4 | e4e4 | f4e4 | f4e4 | a4e4 |
eeeezdcdB4
B4d4 | e2f2e4e4- | e4a4 |
eeeezdcdB4 | cd3BBBB | B2A6

